X:94
T:Thus I gain'd my pretty fair maid
T:same tune as There was a Lawyer & a sawyer
Z:Jack Campin - http://www.campin.me.uk
S:Blaikie MS (NLS MS.1578) p28, Blaikie #88
M:3/4
L:1/8
V:1 midi program 1 74
V:2 midi program 1 46 bass middle = d transpose -24
Q:1/4=90
K:G
[V:1] D|DE/F/ G>F GA|Bd BA  GA|BG F2 ED   |DE/F/ G3  :|
[V:2] z|G2    g2  g2|g2 g2  g2|g2 d2 d2   |d2    g3  :|
%
[V:1] G|GB    d2  de|dd e2  de|dB A2 Gz/G/|G/F/E D3  D|
[V:2] z|G2    g2  g2|b2 c'2 b2|g2 d2 G2   |G2    g2 g2|
%
[V:1]   DE/F/ G>F GA|Bd BA  GA|BG F2 ED   |DE/F/ G3  |]
[V:2]   G2    g2  g2|g2 g2  g2|g2 d2 d2   |d2    g3  |]
W:Transcription (c) Jack Campin 2009, no mirroring or republication without permission

